X:1
T:Windows Sucks
L:1/8
M:6/8
I:linebreak $
K:Emin
V:1 treble 
V:1
|: G3 FGF | EGB e3 | G3 FGF | DFA dAF | G3 FGF | EGB e2 G | (3Bcdg dBG | FGF E3 ::$ g3 fgf | %9
 egb bag | fga d2 A | DFA dAF | g3 fgf | egb bag | (3Bcdg dBG |$ FGF E3 :| %16
